X: 2
T: (Mrs) Mary MacDonald
O: 1788
B: Niel Gow's 2nd Coll. 1788
R: reel
Z: 2014 John Chambers <jc:trillian.mit.edu>
S: printed copy of unknown origin
M: 6/8
L: 1/8
K: Gdor
[|\
"Gm"G2BG "F"AFFA | "Gm"G2BG AGBG | "Gm"DGBG "F"AFFA | "Dm"GcBA "Gm"G2GF | "Gm"G2BG "F"AFFA | "Gm"G2BG AGBG |
"Gm"DGBG "F"AFFA | "Dm"GcBA "Gm"G3 |] A | "Gm"G2gB "F"AFFA | "Gm"G2gd gagd | "C"efcB "F" AFFA |
"Dm"GcBA "Gm"G3A | "Gm"G2gB "F"AFFA | "Gm"G2gd gagd | "Bb"fgfd "F"ACFA | "Dm"GcBA "Gm"G4 |]

%%sep 1 1 500

